X: 1
T:The Mermaid
B:Joyce, P. W.; "Old Irish Folk Music and Songs"
R:song
A:Antrim
O:Irish
H:  A beautiful mermaid visited a ship by moonlight.  The captain tried to
H:detain her: but she canted a song that threw captain and crew into a trance,
H:and so she escaped.  "One of the best of the old northern airs" (Mr.
H:M'Kenzie).
L:1/4
M:3/4
K:D
D|GFE|A2 A|FDD|D2 G/B/|d3/4A/A|def|(e3|c>)z d/e/|fed|
edc|dcB|FGA|GFE|DFA|d> e f|F2 F|GFE|FGA|D2||
